resources/svg/lifebuoy-o.svg

<svg width="15" height="15" viewBox="0 0 15 15" fill="none" xmlns="http://www.w3.org/2000/svg">
<path d="M10.3285 10.3284C8.76642 11.8905 6.23376 11.8905 4.67166 10.3284M10.3285 10.3284C11.8906 8.76633 11.8906 6.23367 10.3285 4.67157M10.3285 10.3284L12.4499 12.4497M4.67166 10.3284C3.10957 8.76633 3.10957 6.23367 4.67166 4.67157M4.67166 10.3284L2.55037 12.4497M10.3285 4.67157C8.76642 3.10948 6.23376 3.10948 4.67166 4.67157M10.3285 4.67157L12.4499 2.55025M4.67166 4.67157L2.55037 2.55025M12.4499 12.4497C9.7162 15.1834 5.28404 15.1834 2.55037 12.4497M12.4499 12.4497C15.1835 9.71608 15.1835 5.28392 12.4499 2.55025M2.55037 12.4497C-0.183295 9.71608 -0.183295 5.28392 2.55037 2.55025M12.4499 2.55025C9.7162 -0.183417 5.28404 -0.183418 2.55037 2.55025" stroke="black"/>
</svg>

<svg viewBox="0 0 15 15" fill="none" xmlns="http://www.w3.org/2000/svg" fill="currentColor"><path d="M10.329 10.328a4 4 0 01-5.657 0m5.657 0a4 4 0 000-5.656m0 5.656l2.12 2.122m-7.777-2.122a4 4 0 010-5.656m0 5.656L2.55 12.45m7.779-7.778a4 4 0 00-5.657 0m5.657 0l2.12-2.122M4.673 4.672L2.55 2.55m9.9 9.9a7 7 0 01-9.9 0m9.9 0a7 7 0 000-9.9m-9.9 9.9a7 7 0 010-9.9m9.9 0a7 7 0 00-9.9 0" stroke="currentColor"/></svg>
